X: 25160
T: Majofis
R: reel
M: 4/4
K: Aminor
EF^GA BcBA|^.G2GE A2A2|B2B2 dcBA|^.G2GE A3E|
EF^GA BcBA|^.G2GE A2A2|^G4 FEFD|1 E8:|2 E6G2||
cde2 e2e2|dedB G3G|GABc defd|e8|
ABc2 c2c2|BcB^G E3E|EF^GA BcGB|1 A6G2:|2 A8||
E2^.G2 E2^.G2|A2A2 dcBA|^G2G2 AGAc|B2e2 e4|
E2^.G2 E2^.G2|A2A2 dcBA|^G2G2 FEFD|E8||

